svgs/sharp-regular/books-medical.svg

<svg xmlns="http://www.w3.org/2000/svg" viewBox="0 0 576 512"><!--! Font Awesome Pro 6.6.0 by @fontawesome - https://fontawesome.com License - https://fontawesome.com/license (Commercial License) Copyright 2024 Fonticons, Inc. --><path d="M112 416l0 48 64 0 0-48-64 0zm64 96l-64 0-48 0 0-48 0-48 0-24 0-8 112 0 0-16 0-48 48 0 0 48 64 0 0-224-64 0 0 48-48 0 0-48 0-16L64 128l0-8 0-24 0-48L64 0l48 0 64 0 48 0 64 0 48 0 0 30.1 11.2-3 54.9-14.7L448.4 0l12.4 46.4 11 41.2 6.2 23.2 6.2 23.2 54.8 204.6 6.2 23.2 6.2 23.2 11 41.2L575 472.4l-46.4 12.4-54.9 14.7L427.4 512 415 465.6l-11-41.2-6.2-23.2-6.2-23.2L336.7 173.5l-.7-2.5L336 368l0 24 0 24 0 48 0 48-48 0-64 0-48 0zm48-48l64 0 0-48-64 0 0 48zM176 48l-64 0 0 48 64 0 0-48zm48 48l64 0 0-48-64 0 0 48zM461.3 453.2l54.9-14.7-11-41.2L450.3 412l11 41.2zm-23.5-87.5L492.8 351 438 146.3 383 161l54.8 204.6zm-67.3-251L425.5 100l-11-41.2L359.6 73.5l11 41.2zM64 160l64 0 0 64 64 0 0 64-64 0 0 64-64 0 0-64L0 288l0-64 64 0 0-64z"/></svg>

<svg xmlns="http://www.w3.org/2000/svg" viewBox="0 0 576 512"><!--! Font Awesome Pro 6.4.2 by @fontawesome - https://fontawesome.com License - https://fontawesome.com/license (Commercial License) Copyright 2023 Fonticons, Inc. --><path d="M112 416v48h64V416H112zm64 96H112 64V464 416 392v-8H176V368 320h48v48h64V144H224v48H176V144 128H64v-8V96 48 0h48 64 48 64 48V30.1l11.2-3 54.9-14.7L448.4 0l12.4 46.4 11 41.2 6.2 23.2 6.2 23.2 54.8 204.6 6.2 23.2 6.2 23.2 11 41.2L575 472.4l-46.4 12.4-54.9 14.7L427.4 512 415 465.6l-11-41.2-6.2-23.2-6.2-23.2L336.7 173.5l-.7-2.5V368v24 24 48 48H288 224 176zm48-48h64V416H224v48zM176 48H112V96h64V48zm48 48h64V48H224V96zM461.3 453.2l54.9-14.7-11-41.2L450.3 412l11 41.2zm-23.5-87.5L492.8 351 438 146.3 383 161l54.8 204.6zm-67.3-251L425.5 100l-11-41.2L359.6 73.5l11 41.2zM64 160h64v64h64v64H128v64H64V288H0V224H64V160z"/></svg>
